icons/verified-16.svg

<svg xmlns="http://www.w3.org/2000/svg" width="16" height="16" viewBox="0 0 16 16"><path d="M9.585.52l.929.68c.153.112.331.186.518.215l1.138.175a2.678 2.678 0 012.24 2.24l.174 1.139c.029.187.103.365.215.518l.68.928a2.677 2.677 0 010 3.17l-.68.928a1.174 1.174 0 00-.215.518l-.175 1.138a2.678 2.678 0 01-2.241 2.241l-1.138.175a1.17 1.17 0 00-.518.215l-.928.68a2.677 2.677 0 01-3.17 0l-.928-.68a1.174 1.174 0 00-.518-.215L3.83 14.41a2.678 2.678 0 01-2.24-2.24l-.175-1.138a1.17 1.17 0 00-.215-.518l-.68-.928a2.677 2.677 0 010-3.17l.68-.928c.112-.153.186-.331.215-.518l.175-1.14a2.678 2.678 0 012.24-2.24l1.139-.175c.187-.029.365-.103.518-.215l.928-.68a2.677 2.677 0 013.17 0zM7.303 1.728l-.927.68a2.67 2.67 0 01-1.18.489l-1.137.174a1.179 1.179 0 00-.987.987l-.174 1.136a2.677 2.677 0 01-.489 1.18l-.68.928a1.18 1.18 0 000 1.394l.68.927c.256.348.424.753.489 1.18l.174 1.137c.078.509.478.909.987.987l1.136.174a2.67 2.67 0 011.18.489l.928.68c.414.305.979.305 1.394 0l.927-.68a2.67 2.67 0 011.18-.489l1.137-.174a1.18 1.18 0 00.987-.987l.174-1.136a2.67 2.67 0 01.489-1.18l.68-.928a1.176 1.176 0 000-1.394l-.68-.927a2.686 2.686 0 01-.489-1.18l-.174-1.137a1.179 1.179 0 00-.987-.987l-1.136-.174a2.677 2.677 0 01-1.18-.489l-.928-.68a1.176 1.176 0 00-1.394 0zM11.28 6.78l-3.75 3.75a.75.75 0 01-1.06 0L4.72 8.78a.751.751 0 01.018-1.042.751.751 0 011.042-.018L7 8.94l3.22-3.22a.751.751 0 011.042.018.751.751 0 01.018 1.042z"/></svg>

<svg xmlns="http://www.w3.org/2000/svg" width="16" height="16" viewBox="0 0 16 16">
  <defs/>
  <path d="M9.585,0.52 L10.514,1.2 C10.667,1.312 10.845,1.386 11.032,1.415 L12.17,1.59 C13.326,1.768 14.232,2.674 14.41,3.83 L14.584,4.969 C14.613,5.156 14.687,5.334 14.799,5.487 L15.479,6.415 C16.172,7.358 16.172,8.642 15.479,9.585 L14.799,10.513 C14.686,10.666 14.613,10.844 14.584,11.031 L14.409,12.169 C14.232,13.325 13.324,14.233 12.168,14.41 L11.03,14.585 C10.842,14.614 10.665,14.687 10.512,14.8 L9.584,15.48 C8.641,16.173 7.357,16.173 6.414,15.48 L5.486,14.8 C5.333,14.687 5.155,14.614 4.968,14.585 L3.83,14.41 C2.674,14.232 1.768,13.326 1.59,12.17 L1.415,11.032 C1.386,10.844 1.313,10.667 1.2,10.514 L0.52,9.586 C-0.173,8.643 -0.173,7.359 0.52,6.416 L1.2,5.488 C1.312,5.335 1.386,5.157 1.415,4.97 L1.59,3.83 C1.768,2.674 2.674,1.768 3.83,1.59 L4.969,1.415 C5.156,1.386 5.334,1.312 5.487,1.2 L6.415,0.52 C7.358,-0.173 8.642,-0.173 9.585,0.52 Z M7.303,1.728 L6.376,2.408 C6.028,2.664 5.623,2.832 5.196,2.897 L4.059,3.071 C3.55,3.149 3.15,3.548 3.072,4.058 L2.898,5.194 C2.832,5.622 2.665,6.026 2.409,6.374 L1.729,7.302 C1.425,7.717 1.425,8.281 1.729,8.696 L2.409,9.623 C2.665,9.971 2.833,10.376 2.898,10.803 L3.072,11.94 C3.15,12.449 3.55,12.849 4.059,12.927 L5.195,13.101 C5.622,13.166 6.027,13.334 6.375,13.59 L7.303,14.27 C7.717,14.575 8.282,14.575 8.697,14.27 L9.624,13.59 C9.972,13.334 10.377,13.166 10.804,13.101 L11.941,12.927 C12.45,12.849 12.85,12.449 12.928,11.94 L13.102,10.804 C13.167,10.377 13.335,9.972 13.591,9.624 L14.271,8.696 C14.576,8.282 14.576,7.717 14.271,7.302 L13.591,6.375 C13.335,6.026 13.168,5.622 13.102,5.195 L12.928,4.058 C12.85,3.549 12.451,3.149 11.941,3.071 L10.805,2.897 C10.377,2.831 9.973,2.664 9.625,2.408 L8.697,1.728 C8.283,1.423 7.718,1.423 7.303,1.728 Z M11.28,6.78 L7.53,10.53 C7.237,10.822 6.763,10.822 6.47,10.53 L4.72,8.78 C4.445,8.484 4.453,8.024 4.738,7.738 C5.024,7.453 5.484,7.445 5.78,7.72 L7,8.94 L10.22,5.72 C10.516,5.445 10.976,5.453 11.262,5.738 C11.547,6.024 11.555,6.484 11.28,6.78 Z"/>
</svg>
